X:442
%%etbk:tnset id:152,pos:1,rep:3x,ant:
%%etbk:wsite http://www.thesession.org/tunes/display/655
%%etbk:skill ?
%%etbk:pldat 2013-11-16T15:15,2013-11-12T17:50,2013-11-10T15:33,2013-05-14T18:58
T: Charlie O'Neill's
Z: Piano Box Version by Martin Fleischmann
H: Created 2013-02-19 /  Last Modified 2013-02-19
M: 4/4
L: 1/8
R: highland
K: Emin
|: !3!B<!1!E!3!B>!1!E !4!cBc!2!A | !3!B<!1!E!3!B>!1!E !4!c!2!A!1!F!2!A | !3!B<!1!E!3!B>!1!E !4!cBcB | !2!Acdc !3!B<!1!GG2:||
| !5!g2!4!fg !1!B2!3!BA | !1!G!2!e!5!ag !3!fdef | !5!g2fg !1!B2!3!BA | !1!G!2!B!4!d!3!c !2!B<!1!GG2 |
!5!g2!4!fg !1!B2!3!BA | !1!G!2!e!5!ag !3!f!1!d!3!c!1!A | !1!G!2!B!4!d!2!B !3!c!4!d!5!e!2!f | !3!g!5!ba!2!f !3!g4||
